src/assets/stop-screen-share.svg

<svg fill="none" height="19" viewBox="0 0 24 19" width="24" xmlns="http://www.w3.org/2000/svg"><path clip-rule="evenodd" d="m10.2803 7.21967c-.29286-.29289-.76774-.29289-1.06063 0s-.29289.76777 0 1.06066l1.82683 1.82677-1.82683 1.8269c-.29289.2928-.29289.7677 0 1.0606s.76777.2929 1.06063 0l1.8268-1.8268 1.8269 1.8268c.2928.2929.7677.2929 1.0606 0s.2929-.7678 0-1.0606l-1.8268-1.8269 1.8268-1.82677c.2929-.29289.2929-.76777 0-1.06066s-.7678-.29289-1.0606 0l-1.8269 1.82681z" fill="#f44747" fill-rule="evenodd"/><rect height="15.5" rx="1.25" stroke="#f44747" stroke-width="1.5" width="20.5" x="1.75" y="1.75"/></svg>

<svg width="24" height="19" viewBox="0 0 24 19" fill="none" xmlns="http://www.w3.org/2000/svg">
<path fill-rule="evenodd" clip-rule="evenodd" d="M10.2803 7.21967C9.98744 6.92678 9.51256 6.92678 9.21967 7.21967C8.92678 7.51256 8.92678 7.98744 9.21967 8.28033L11.0465 10.1071L9.21967 11.934C8.92678 12.2268 8.92678 12.7017 9.21967 12.9946C9.51256 13.2875 9.98744 13.2875 10.2803 12.9946L12.1071 11.1678L13.934 12.9946C14.2268 13.2875 14.7017 13.2875 14.9946 12.9946C15.2875 12.7017 15.2875 12.2268 14.9946 11.934L13.1678 10.1071L14.9946 8.28033C15.2875 7.98744 15.2875 7.51256 14.9946 7.21967C14.7017 6.92678 14.2268 6.92678 13.934 7.21967L12.1071 9.04648L10.2803 7.21967Z" fill="#F44747"/>
<rect x="1.75" y="1.75" width="20.5" height="15.5" rx="1.25" stroke="#F44747" stroke-width="1.5"/>
</svg>
